X:1
T:Title
%%score { ( 1 3 ) | 2 }
L:1/8
Q:1/4=100
M:4/4
K:C
V:1 treble nm="Grand Piano"
V:3 treble 
V:2 bass 
V:1
 CCEE [EG][EG][Ec][FA] | [EG]2 [CE]2 [B,D]4 | CCEE [EG][EG][Ec][Ec] | [DB]2 [CA]2 [B,G]4 | %4
w: C.~Austin~Miles * * * * * * *||||
 FFFD E [EG]3 | FFFD E [EG]3 | [Ee]>[Ed] [Ec][Ec] d c2 A |[M:7/8] G2 B2 [CEc]3 |[M:1/8] [G,CE] | %9
w: |||||
[M:4/4] G2 G2 G4 | c2 c2 c4 | [Ee]>[Ed] [Ec][Ec] d c2 A | [CEG]2 [G,CE]2 [G,B,D]3 [G,CE] | %13
w: ||||
 G2 G2 G4 | c2 c2 c4 | [Ee]>[Ed] [Ec][Ec] d c2 A | G2 B2 [Ec]4 |] %17
w: ||||
V:2
 [C,E,][C,E,][C,G,C][C,G,C] [C,C][C,C][C,G,][C,C] | [C,C]2 [C,G,]2 [G,,G,]4 | %2
 [C,E,][C,E,][C,G,C][C,G,C] [C,C][C,C][C,G,][C,G,] | [D,G,]2 [D,^F,]2 [G,,G,]4 | %4
 [G,B,D][G,B,D][G,B,D][G,B,] [C,G,C] [C,C]3 | [G,B,D][G,B,D][G,B,D][G,B,] [C,G,C] [C,C]3 | %6
 [C,G,]>[C,G,] [C,_B,][C,B,][K:treble] [F,A,F] [F,A,F]2 [F,CF] | %7
[M:7/8] [G,CE]2 [G,DF]2[K:bass] C,3 |[M:1/8] C, |[M:4/4] C,C,G,,G,, [C,C][C,C][C,C][C,C] | %10
 [C,G,][C,G,][F,A,F][F,A,] [C,G,][C,G,][C,G,][C,G,] | %11
 [C,G,]>[C,G,] [C,_B,][C,B,] [F,A,F] [F,A,F]2 [F,CF] | C,2 C,2 G,,3 C, | %13
 C,C,G,,G,, [C,C][C,C][C,C][C,C] | [C,G,][C,G,][F,A,F][F,A,] [C,G,][C,G,][C,G,][C,G,] | %15
 [C,G,]>[C,G,] [C,_B,][C,B,][K:treble] [F,A,F] [F,A,F]2 [F,CF] | [G,CE]2 [G,DF]2[K:bass] [C,C]4 |] %17
V:3
 x8 | x8 | x8 | x8 | x8 | x8 | x8 |[M:7/8] x7 |[M:1/8] x |[M:4/4] [CE][CE][B,D][DF] EEE[EG] | %10
 EE z F EEE[Ec] | x8 | x8 | [CE][CE][B,D][DF] EEE[EG] | EE z F EEE[Ec] | x8 | x8 |] %17

